icons/checklist-16.svg

<svg xmlns="http://www.w3.org/2000/svg" width="16" height="16" viewBox="0 0 16 16"><path d="M2.5 1.75v11.5c0 .138.112.25.25.25h3.17a.75.75 0 010 1.5H2.75A1.75 1.75 0 011 13.25V1.75C1 .784 1.784 0 2.75 0h8.5C12.216 0 13 .784 13 1.75v7.736a.75.75 0 01-1.5 0V1.75a.25.25 0 00-.25-.25h-8.5a.25.25 0 00-.25.25zm13.274 9.537v-.001l-4.557 4.45a.75.75 0 01-1.055-.008l-1.943-1.95a.75.75 0 011.062-1.058l1.419 1.425 4.026-3.932a.75.75 0 111.048 1.074zM4.75 4h4.5a.75.75 0 010 1.5h-4.5a.75.75 0 010-1.5zM4 7.75A.75.75 0 014.75 7h2a.75.75 0 010 1.5h-2A.75.75 0 014 7.75z"/></svg>

<svg xmlns="http://www.w3.org/2000/svg" width="16" height="16" viewBox="0 0 16 16">
  <defs/>
  <path d="M2.5,1.75 L2.5,13.25 C2.5,13.388 2.612,13.5 2.75,13.5 L5.92,13.5 C6.334,13.5 6.67,13.836 6.67,14.25 C6.67,14.664 6.334,15 5.92,15 L2.75,15 C1.784,15 1,14.216 1,13.25 L1,1.75 C1,0.784 1.784,0 2.75,0 L11.25,0 C12.216,0 13,0.784 13,1.75 L13,9.486 C13,9.9 12.664,10.236 12.25,10.236 C11.836,10.236 11.5,9.9 11.5,9.486 L11.5,1.75 C11.5,1.612 11.388,1.5 11.25,1.5 L2.75,1.5 C2.612,1.5 2.5,1.612 2.5,1.75 Z M15.774,11.287 L15.774,11.286 L11.217,15.736 C10.923,16.023 10.452,16.019 10.162,15.728 L8.219,13.778 C7.944,13.482 7.953,13.021 8.239,12.736 C8.525,12.451 8.986,12.444 9.281,12.72 L10.7,14.145 L14.726,10.213 C15.023,9.924 15.498,9.929 15.787,10.226 C16.076,10.523 16.071,10.998 15.774,11.287 Z M4.75,4 L9.25,4 C9.664,4 10,4.336 10,4.75 C10,5.164 9.664,5.5 9.25,5.5 L4.75,5.5 C4.336,5.5 4,5.164 4,4.75 C4,4.336 4.336,4 4.75,4 Z M4,7.75 C4,7.336 4.336,7 4.75,7 L6.75,7 C7.164,7 7.5,7.336 7.5,7.75 C7.5,8.164 7.164,8.5 6.75,8.5 L4.75,8.5 C4.336,8.5 4,8.164 4,7.75 Z"/>
</svg>
